X:509
T:B509-  When Maids Live to Thirty
Q:1/4=120
L:1/4
M:6/4
K:Gm
G|BBcdGd|edg^fdf|ggdeed|B3/2A/GddB|\
ddBffd|eGcA2F|BBcdBf|FBdB2d|\
d=ef^c=BA|dd=ef2f|fcde3/2e/d|G3/2B/ (A/G/)^F2F/F/|\
GGA(B/A/G)d|B3/2e/cd2^f|gdABcd|B3/2A/GG2|]
